kturtle-script-v1.0
@(reset)
@(canvassize) 850@(,) 550
@(go) 125@(,) 350
@(turnright) 90

@(learn) koch $length@(,) $depth {
  @(if) $depth > 0 {
    $depth = $depth-1
    $length = $length/3
    koch $length@(,) $depth
    @(turnleft) 60
    koch $length@(,) $depth
    @(turnright) 120
    koch $length@(,) $depth
    @(turnleft) 60
    koch $length@(,) $depth
  } @(else) {
  @(forward) 3*$length
  }
}

koch 200@(,) 6
