kturtle-script-v1.0
@(reset)

$ladomin = 2
$lado = 300

@(learn) octogono $lado {
  @(if) $lado > $ladomin {
    @(repeat) 8 {
      @(forward) $lado
      @(turnright) 45
      octogono $lado/4
    }
  }
}

@(learn) cruz $lado {
  @(if) $lado > $ladomin {
    @(repeat) 4 {
      @(forward) $lado
      @(turnright) 90
      cruz $lado/3
    }
  }
}

@(turnright) 270

#go 250, 300
#octogono $lado

@(go) 350@(,) 350
cruz $lado

@(go) 0@(,) 0