kturtle-script-v1.0
@(reset) 

$comp = 60
$i = 1
@(repeat) 5 {
  @(repeat) 6 {
    @(turnright) 90
    @(forward) $comp 
  }
  @(turnright) 18
  $comp = $comp + $i * 18
  $i = $i + 1
  @(forward) $i * 9
}
