kturtle-script-v1.0
@(reset)
@(canvassize) 800@(,) 600
@(go) 400@(,) 500

@(learn) arvore $nivel@(,) $comp {
  @(if) $nivel > 0 {
    @(forward) $comp
    @(turnleft) 60
    arvore $nivel-1@(,) 0.7*$comp
    @(turnright) 120 
    arvore $nivel-1@(,) 0.7*$comp
    @(turnright) 120
    @(forward) $comp
    @(turnleft) 180
  }
}

arvore 12@(,) 150